X: 21005
T: Julia Delaney's
R: reel
M: 4/4
K: Edorian
|:B|edBA G2 EG|F2 DF GE E2|edBA GE E2|Bee^d efgf|
edBA G2 EG|F2 DF GE E2|edBA GE E2|1 Bee^d e3:|2 Bee^d e2ef||
|:g2 eg bgeg|f2 df afdf|g2 eg bgeg|fed=c Beef|
g2 eg bgeg|f2 df afdf|gfeg fed=c|1 Bee^d e2ef:|2 Bee^d e3||
g2 b<g g2 b<g|f2 a<f f2 a<f|g2 b<g g2 b<g|fed=c Beef|
g2 b<g g2 b<g|f2 a<f f2 a<f|gfeg fed=c|Bee^d e2 ef|
g2 eg gege|f2 df fdfd|g2 eg gege|fed=c Beef|
g2 eg gege|f2 df fdfd|gfeg fed=c|Bee^d e3||
|:edBA G3B|F3B E3B|edBA G3A|(3Bcd ef g3f|
edBA G3B|F3B E3B|edBA GE E2|Bee^d e3||

